X: 34920
T: Rockaway Beach
R: polka
M: 2/4
K: Dmajor
D>F Ad|BAd2|Ad fa|ed B/c/d|D>F Ad|BAd2|BA dA|Bd FE:|
|:FA df|e2df|e2dA|Bd BA|FA df|e2df|e2dA|1 Bd dA:|2 Bdd2||
|:BA de|fd af|e2dB|e2dB|BA de|fd af|e2dA|Bdd2:|

